X: 21
T:Rakes of Mallow, The
M:2/4
L:1/8
Q:240
R:polka
Z:id:hn-polka-85
K:G
"G".G.B .G.B|.G.B c/B/A/G/|"D".F.A .F.A|.F.A d/c/B/A/|
"G".G.B .G.B|.G.B d>B|"C"c/B/A/G/ "D"F/G/A/c/|"G".BG G2::!
"G"gf/e/ dc|Bc d2|gf/e/ dc|Bc "D"A2|
"G"gf/e/ dc|Bc d>B|"C"c/B/A/G/ "D"F/G/A/c/|"G".BG G2:|
|
